dist/img/icon-service-card-2.svg

<svg width="80" height="80" viewBox="0 0 80 80" fill="none" xmlns="http://www.w3.org/2000/svg">
<rect width="80" height="80" rx="16" fill="#F4F5F6"/>
<path d="M40 49C40 49 47.619 41.4167 49.1429 37.0833C50.6667 32.75 50.1587 29.4999 47.619 26.25C45.0794 23 40 23 40 23" stroke="#83C150" stroke-width="2" stroke-linecap="round"/>
<path d="M40 49C40 49 32.381 41.4167 30.8571 37.0833C29.3333 32.75 29.8413 29.4999 32.381 26.25C34.9206 23 40 23 40 23" stroke="#83C150" stroke-width="2" stroke-linecap="round"/>
<circle cx="40" cy="33" r="4.5" stroke="#393939"/>
<path d="M31 43L29.0694 43.9653C29.0247 43.9876 28.9901 44.0258 28.9722 44.0724L24.1381 56.6408C24.08 56.792 24.2162 56.9459 24.3733 56.9067L32 55M32 55L34 47M32 55L39.7515 56.9379C39.8777 56.9694 40 56.874 40 56.7438V52" stroke="#393939" stroke-width="2" stroke-linecap="round"/>
<path d="M49 43L50.9306 43.9653C50.9753 43.9876 51.0099 44.0258 51.0278 44.0724L55.8619 56.6408C55.92 56.792 55.7838 56.9459 55.6267 56.9067L48 55M48 55L46 47M48 55L40.2485 56.9379C40.1223 56.9694 40 56.874 40 56.7438V52" stroke="#393939" stroke-width="2" stroke-linecap="round"/>
</svg>

<svg width="80" height="80" fill="none" xmlns="http://www.w3.org/2000/svg"><rect width="80" height="80" rx="16" fill="#F4F5F6"/><path d="M40 49s7.619-7.583 9.143-11.917c1.524-4.333 1.016-7.583-1.524-10.833S40 23 40 23m0 26s-7.619-7.583-9.143-11.917c-1.524-4.333-1.016-7.583 1.524-10.833S40 23 40 23" stroke="#83C150" stroke-width="2" stroke-linecap="round"/><circle cx="40" cy="33" r="4.5" stroke="#393939"/><path d="M31 43l-1.93.965a.2.2 0 00-.098.107l-4.834 12.569a.2.2 0 00.235.266L32 55m0 0l2-8m-2 8l7.752 1.938a.2.2 0 00.248-.194V52m9-9l1.93.965a.2.2 0 01.098.107l4.834 12.569a.2.2 0 01-.235.266L48 55m0 0l-2-8m2 8l-7.752 1.938a.2.2 0 01-.248-.194V52" stroke="#393939" stroke-width="2" stroke-linecap="round"/></svg>
